16x16/apps/lyx.svg

<svg height="16" width="16" xmlns="http://www.w3.org/2000/svg"><path d="m15 15.2v-14.4c0-.443-.362-.8-.813-.8h-11.374a.805.805 0 0 0 -.813.8v14.4c0 .443.362.8.813.8h11.374c.45 0 .813-.357.813-.8z" fill="#f4f4f7"/><path d="m4.737 10.855-1.737-4.339 1.399-.707.034-.048 1.128 2.95 1.353-.744.609 1.401m-2.785 1.487" fill="#4587cf"/><path d="m5.942 6.48 1.749.255.52 1.17.652-1.011 1.76.242-1.613 2.487-.395 2.377-1.635-.28.28-2.133m-1.317-3.107" fill="#dfa722"/><path d="m9.798 5 1.528.317.328 1.068.671-.824 1.675.379-1.5 1.807.847 2.69-1.802-.19-.32-1.46-.816 1.2-1.403-.47 1.408-2.15m-.621-2.367" fill="#de5328"/></svg>

<svg xmlns="http://www.w3.org/2000/svg" width="16" height="16" version="1"><path style="fill:#f4f4f7" d="M15 15.2V.8c0-.443-.362-.8-.813-.8H2.813A.805.805 0 0 0 2 .8v14.4c0 .443.362.8.813.8h11.374c.45 0 .813-.357.813-.8z"/><path style="fill:#4587cf" d="M4.737 10.855 3 6.516l1.399-.707.034-.048 1.128 2.95 1.353-.744.609 1.401m-2.785 1.487"/><path style="fill:#dfa722" d="m5.942 6.48 1.749.255.52 1.17.652-1.011 1.76.242L9.01 9.623 8.615 12l-1.635-.28.28-2.133M5.943 6.48"/><path style="fill:#de5328" d="m9.798 5 1.528.317.328 1.068.671-.824L14 5.94l-1.5 1.807.847 2.69-1.802-.19-.32-1.46-.816 1.2-1.403-.47 1.408-2.15M9.793 5"/></svg>
